X:1    
T:The Sad Recruit [The White Cockade]
F:http://www.folkinfo.org/songs
B:A Garland of Country Song, S Baring Gould and H Fleetwood Sheppard, 1895
Z:S Baring-Gould
M:4/4     
L:1/8     
K:G
G2 |G2 B2 d2 e2 |(d2B2) G2 (Bd) |c2 A2 B2 A2 | G4 z2
w:'Twas one mid-sum-mer morn--ing As_ I walked o'er the grass,
 G2 |G2 B2 d2 e2 |d2 B2 c2 d2 |e2 d2 c2 (Bc) | d4 z2
w:I nev-er thought of 'list-ing Till a sol-dier did me_ pass.
 G2 |G2 B2 d2 e2 |d2 B2 c2 d2 |e3 d c2 B2 | (A2B2) 
w:He kind-ly did in-vite of me To drink a flow-ing bowl;_ 
c2 A2 |d2 d2 G2 F2 |E2 E2 c2 d2 |e2 e2 A2 F2 | F2 D2 
w:He ad-vanc-ed, he ad-vanc-ed, he ad-vanc-ed, he ad-vanc-ed,
d2 d2 |d2 e2 d2 e2 |(d2B2) G2 (Bd) |c2 A2 B2 A2 | G4 z4 |]
w:He ad-vanc-ed me that morn--ing Five_ guin-eas in bright gold. 